!!!COM: Palestrina, Giovanni Perluigi da
!!!OPR: Regina coeli (1601)
!!!OTL: Benedictus
**kern	**kern	**kern	**kern
*Itenor	*Icalto	*Icalto	*Icant
!Tenor	!Altus 2	!Altus 1	!Cantus
*clefGv2	*clefG2	*clefG2	*clefG2
*k[b-]	*k[b-]	*k[b-]	*k[b-]
*F:ion	*F:ion	*F:ion	*F:ion
*M4/2	*M4/2	*M4/2	*M4/2
=1	=1	=1	=1
0r	1B-	0r	0r
.	1c	.	.
=2	=2	=2	=2
0r	1d	0r	1f
.	1c	.	1g
=3	=3	=3	=3
0r	2F	0r	1a
.	1f	.	.
.	.	.	1g
.	4e	.	.
.	4d	.	.
=4	=4	=4	=4
0r	2e	0r	2c
.	2f	.	1cc
.	2.d	.	.
.	.	.	4b-
.	4c	.	4a
=5	=5	=5	=5
1r	2d	0r	2b-
.	2e	.	4cc
.	.	.	4b-
1F	2.f	.	4a
.	.	.	4g
.	.	.	[2a
.	4e	.	.
=6	=6	=6	=6
1G	4d	1B-	2a]
.	4c	.	.
.	2.d	.	1g
1A	.	1c	.
.	4c	.	.
.	[2c	.	2f
=7	=7	=7	=7
1G	2c]	1d	0g
.	2B	.	.
2C	2c	1c	.
[2c	2e	.	.
=8	=8	=8	=8
2c]	4f	2F	2r
.	4e	.	.
4B-	4d	1f	2f
4A	4c	.	.
2B-	2d	.	1g
2c	2c	4e	.
.	.	4d	.
=9	=9	=9	=9
2A	2r	2e	1a
2F	1c	2f	.
1G	.	2.d	[1g
.	4B-	.	.
.	4A	4c	.
=10	=10	=10	=10
0r	2B-	2d	1g]
.	2c	1e	.
.	2A	.	2c
.	2F	2f	[2cc
=11	=11	=11	=11
0r	2.G	2d	2cc]
.	.	1g	4b-
.	4F	.	4a
.	2G	.	2b-
.	2A	[2f	2cc
=12	=12	=12	=12
2r	1B-	4f]	1dd
.	.	4e	.
2B-	.	4f	.
.	.	4d	.
1c	1r	4e	2.cc
.	.	4f	.
.	.	[2g	.
.	.	.	4b-
=13	=13	=13	=13
1d	1r	4g]	2a
.	.	4f	.
.	.	1f	4g
.	.	.	4f
1c	2r	.	1g
.	2c	2e	.
=14	=14	=14	=14
2F	2c	0f	2f
1B-	1d	.	4d
.	.	.	4e
.	.	.	4f
.	.	.	4g
4A	[2c	.	4a
4G	.	.	4b-
=15	=15	=15	=15
2A	4c]	1r	2cc
.	4A	.	.
2B-	2d	.	2b-
1F	2c	1f	1a
.	[2f	.	.
=16	=16	=16	=16
0r	2f]	2B-	1g
.	2e	2c	.
.	1f	2d	2r
.	.	[2f	2cc
=17	=17	=17	=17
2r	0r	4f]	2f
.	.	4d	.
2c	.	2e	2g
2F	.	2f	2a
2G	.	4e	2b-
.	.	4d	.
=18	=18	=18	=18
2A	0r	2c	2a
2B-	.	2d	4g
.	.	.	4f
2.G	.	2.B-	4e
.	.	.	4d
.	.	.	[2g
4A	.	4c	.
=19	=19	=19	=19
2B-	0r	2d	4g]
.	.	.	4f
2A	.	2c	4f
.	.	.	8g
.	.	.	8a
1G	.	2d	2b-
.	.	2e	2b-
=20	=20	=20	=20
1F	2r	1.f	2a
.	2f	.	2cc
1r	2B-	.	2dd
.	2c	2e	4cc
.	.	.	4b-
=21	=21	=21	=21
0r	2d	2f	2a
.	2e-	2.g	2g
.	2d	.	2a
.	.	4f	.
.	2B-	[2f	2b-
=22	=22	=22	=22
2r	1c	2f]	2g
2c	.	2e	1cc
2F	1r	1d	.
2G	.	.	2b-
=23	=23	=23	=23
2A	2r	2c	2a
2B-	2d	1d	2g
2.A	2f	.	1a
.	2e	2c	.
4G	.	.	.
=24	=24	=24	=24
2F	4d	1.d	0r
.	4c	.	.
2.G	4B-	.	.
.	4A	.	.
.	4B-	.	.
4F	4A	.	.
[2F	4A	2d	.
.	8G	.	.
.	8F	.	.
=25	=25	=25	=25
2F]	1G	1c	0r
2E	.	.	.
1F	2A	2r	.
.	4F	2c	.
.	4G	.	.
=26	=26	=26	=26
0r	4A	2.F	1cc
.	4G	.	.
.	4A	.	.
.	4B-	4G	.
.	2c	2A	2f
.	2d	2B-	2g
=27	=27	=27	=27
1r	2e	2A	2a
.	2f	2.d	2.b-
1A	1e	.	.
.	.	4c	4a
.	.	4c	[2a
.	.	8B-	.
.	.	8A	.
=28	=28	=28	=28
2D	1r	2B-	2a]
2E	.	2B-	2g
[1F	2r	1A	2.cc
.	2c	.	.
.	.	.	4b-
=29	=29	=29	=29
2F]	2F	1c	2a
2E	2G	.	2g
[1D	2A	1d	2f
.	2B-	.	[2g
=30	=30	=30	=30
1D]	2A	2d	4g]
.	.	.	4f
.	4G	2B-	1f
.	4F	.	.
1C	2G	2.c	.
.	2G	.	2e
.	.	4c	.
=31	=31	=31	=31
0F	0A	0c	0f
!! Hosanna
*Ibass	*Itenor	*Icalto	*Icant
!Bassus	!Tenor	!Altus	!Cantus
*clefF4	*clefGv2	*clefG2	*clefG2
*k[b-]	*k[b-]	*k[b-]	*k[b-]
*F:ion	*F:ion	*F:ion	*F:ion
*M4/2	*M4/2	*M4/2	*M4/2
=32	=32	=32	=32
0r	0r	1B-	1b-
.	.	2c	2g
.	.	2d	2f
=33	=33	=33	=33
0r	1r	2e	2g
.	.	2c	2a
.	2r	2.d	2f
.	2F	.	2a
.	.	4c	.
=34	=34	=34	=34
0r	2G	2B-	2g
.	2A	2A	1f
.	2B-	1G	.
.	2G	.	2e
=35	=35	=35	=35
2r	2.A	2F	1f
2F	.	2f	.
.	8G	.	.
.	8A	.	.
2G	2B-	2d	1r
2A	2A	2c	.
=36	=36	=36	=36
2B-	2G	2d	1r
2G	2C	2e	.
2.A	2F	2c	2r
.	2C	2e	2c
4G	.	.	.
=37	=37	=37	=37
2F	2r	2d	2d
2E	2G	1c	2e
1D	2A	.	2f
.	2F	2B	2d
=38	=38	=38	=38
2C	2G	1c	4e
.	.	.	4f
2C	2c	.	4g
.	.	.	4e
2D	2A	1r	2f
2E	2G	.	4e
.	.	.	4d
=39	=39	=39	=39
2F	2A	0r	2c
2D	2B-	.	2d
2E	2G	.	[1c
[2F	2A	.	.
=40	=40	=40	=40
2F]	1G	1r	1c]
2E	.	.	.
1F	2.A	1c	2r
.	.	.	2cc
.	4G	.	.
=41	=41	=41	=41
0r	2F	2d	2a
.	2E	2e	2g
.	2D	2f	2a
.	2G	2d	2b-
=42	=42	=42	=42
1r	1C	2e	2g
.	.	1f	2a
1C	1c	.	1g
.	.	2e	.
=43	=43	=43	=43
2D	2A	2d	2f
2E	2G	2.c	2.g
2F	2A	.	.
.	.	4A	4f
2BB-	2B-	2d	2f
=44	=44	=44	=44
0C	2G	0c	2e
.	2A	.	1f
.	1G	.	.
.	.	.	2e
=45	=45	=45	=45
0FF	0F	0c	0f
==	==	==	==
*-	*-	*-	*-
!!!CDT: 1525/^1526/-1594/2/2
!!!OCY: Italia
!!!AGN: Mass (Paraphrase)
!!!AST: renaissance, vocal
!!!ASW: Antiphon
!!!PWK: Masses, Book 12
!!!RNB: Cadence finals: C
!!!YOR: Le Opere Complete, v. 29, p. 1
!!!YOO: Rome, Italy: Fratelli Scalera
!!!END: 1992//
!!!EED: John Miller
!!!YEC: Copyright 2000, John Miller
!!!YEN: United States of America
!!!YEM: Rights to all derivative electronic formats reserved.
!!!YEM: Refer to licensing agreement for further details.
!!!YEM: This file must be accompanied by the licensing agreement.
!!!YEM: A copy of the licensing agreement may be found at http://www.music-cog.ohio-state.edu/HumdrumDatabases/Palestrina/license.txt
!!!EMD: converted to Humdrum by Bret Aarden
